X:1
T:Lesneven, CMD
T:Lesneven, CMD
T:Anoymous, before 1917
T:Public Domain Courtesy of the Cyber Hymnal™
C:Anoymous, before 1917
Z:Public Domain
Z:Courtesy of the Cyber Hymnal™
%%score ( 1 2 ) ( 3 4 )
L:1/8
Q:1/4=110
M:6/8
K:F
V:1 treble 
V:2 treble 
V:3 bass 
V:4 bass 
V:1
 [FA] | [FA]2 [FB] [Fc]2 [Fd] | [Fc]2 [EB] [FA]2 [FA] | (AG)[DF] [EG]2 [FA] | %4
 [FA]3- [FA]2!p! [^CA] | [DA]2 [FB] [Fc]2 [Fd] | c2 [GB] [FA]2 [FA] | (AG)[DF] [DG]2 [D^G] | %8
 [^CA]3- [CA]2"^accel. e. cresc" [CA] | [DA]2 [^CA] ([DA][EG])[FA] | [FB]2 [EB] [FA]2 [FA] | %11
 [Fc]2 [^Fc] [GB]2 [=FA] | G3 [EG]2 F | [FA]2 [FB] [Fc]2 [Fd] | [Fc]2 [Ec] F2 [FB] | %15
 [FA]2 [FA] (GA)[EG] | F3- F2 |] %17
V:2
 x | x6 | x6 | E2 x4 | x6 | x6 | (EF) x4 | E2 x4 | x6 | x6 | x6 | x6 | (FED x F) x | x6 | x3 F2 x | %15
 x3 E2 x | F3- F2 |] %17
V:3
 [F,C] | [F,C]2 [D,B,] [C,A,]2 [B,,B,] | [C,G,]2 [C,C] [F,C]2 [A,C] | [B,C]2 [A,C] [G,C]2 [F,C] | %4
 [F,C]3- [F,C]2!p! [G,A,] | [F,A,]2 [D,F,] [C,A,]2 [B,,F,] | C2 [E,C] [F,C]2 [A,C] | %7
 [^C,A,]2 [D,A,] [B,,G,]2 [B,,D,] | [A,,E,]3- [A,,E,]2 [G,A,] | [F,A,]2 [E,G,] (F,B,)[D,A,] | %10
 [G,,D]2 [C,C] [F,C]2 [E,C] | [A,C]2 [A,D] [B,D]2 [=B,D] | C3- C2 [A,C] | %13
 [F,C]2 [D,B,] [C,A,]2 [B,,B,] | (G,A,)[C,B,] [D,A,]2 [_D,B,] | [C,C]2 [C,A,] (B,C)[C,B,] | %16
 (B,A,G, [F,,C,A,]2) |] %17
V:4
 x | x6 | x6 | x6 | x6 | x6 | (C,D,) x4 | x6 | x6 | x3 D,2 x | x6 | x6 | (C3- CB,) x | x6 | %14
 C,2 x4 | x3 C,2 x | [F,,C,]3- x2 |] %17

